web/assets/img/functions/970_2-on.svg

<svg width="512" height="512" viewBox="0 0 512 512" fill="none" xmlns="http://www.w3.org/2000/svg">
    <path fill-rule="evenodd" clip-rule="evenodd"
          d="M166 179.939C166 174.417 170.477 169.939 176 169.939H336C341.523 169.939 346 174.417 346 179.939V243.939C346 249.462 341.523 253.939 336 253.939H176C170.477 253.939 166 249.462 166 243.939V179.939ZM186 189.939V233.939H326V189.939H186Z"
          fill="#12A71E"/>
    <path fill-rule="evenodd" clip-rule="evenodd"
          d="M236 2.97852C230.477 2.97852 226 7.45567 226 12.9785V50.9785H196C190.477 50.9785 186 55.4557 186 60.9785V90.9785H128C104.804 90.9785 86 109.783 86 132.979V420.979C86 443.504 103.733 461.888 126 462.932V500.979C126 506.501 130.477 510.979 136 510.979H176C181.523 510.979 186 506.501 186 500.979V462.979H326V500.979C326 506.501 330.477 510.979 336 510.979H376C381.523 510.979 386 506.501 386 500.979V462.932C408.267 461.888 426 443.504 426 420.979V132.979C426 109.783 407.196 90.9785 384 90.9785H326V60.9785C326 55.4557 321.523 50.9785 316 50.9785H286V12.9785C286 7.45567 281.523 2.97852 276 2.97852H236ZM366 462.979H346V490.979H366V462.979ZM376 442.979H384C396.15 442.979 406 433.129 406 420.979V132.979C406 120.828 396.15 110.979 384 110.979H316H196H128C115.85 110.979 106 120.828 106 132.979V420.979C106 433.129 115.85 442.979 128 442.979H136H176H336H376ZM146 490.979V462.979H166V490.979H146ZM266 50.9785V22.9785H246V50.9785H266ZM236 70.9785H206V90.9785H306V70.9785H276H236Z"
          fill="#282828"/>
    <path fill-rule="evenodd" clip-rule="evenodd"
          d="M235.848 327.844C226.049 338.888 219.629 353.431 219.629 367.755C219.629 382.513 224.033 390.925 228.644 395.651C228.826 392.678 229.424 389.702 230.432 386.742C233.786 376.889 241.327 368.276 250.23 360.735C254.019 357.526 259.587 357.582 263.31 360.867C271.301 367.918 278.934 376.869 282.488 386.826C283.499 389.659 284.207 392.655 284.464 395.752C288.585 391.648 292.371 384.632 292.371 372.365C292.371 367.502 290.613 363.981 287.375 360.407C284.729 357.486 281.754 355.146 278.11 352.28C276.518 351.028 274.799 349.676 272.924 348.13C267.395 343.576 260.906 337.547 257.442 328.822C255.558 324.075 254.726 318.967 255.006 313.426C248.428 316.296 241.755 321.187 235.848 327.844ZM220.888 314.57C233.19 300.706 250.303 290.459 268.026 290.459C271.301 290.459 274.368 292.062 276.237 294.751C278.106 297.44 278.54 300.873 277.399 303.943C274.079 312.878 274.688 318.059 276.031 321.443C277.528 325.213 280.611 328.55 285.641 332.695C286.705 333.571 287.925 334.53 289.236 335.561C293.338 338.786 298.33 342.711 302.197 346.979C307.864 353.234 312.371 361.34 312.371 372.365C312.371 390.787 305.892 403.703 296.472 411.88C287.395 419.76 276.486 422.459 268.536 422.459C264.533 422.459 260.915 420.072 259.341 416.391C257.768 412.71 258.54 408.445 261.306 405.551C263.338 403.424 264.145 401.536 264.431 399.909C264.73 398.207 264.57 396.123 263.652 393.549C262.404 390.053 259.945 386.197 256.514 382.279C252.767 386.321 250.462 389.965 249.365 393.187C247.975 397.268 248.224 401.436 251.933 406.698C254.084 409.751 254.355 413.748 252.636 417.063C250.916 420.378 247.493 422.459 243.758 422.459C234.881 422.459 223.746 418.985 214.805 410.099C205.671 401.021 199.629 387.118 199.629 367.755C199.629 347.68 208.461 328.576 220.888 314.57Z"
          fill="#282828"/>
</svg>

<?xml version="1.0" encoding="utf-8"?>
<!-- Generator: Adobe Illustrator 28.2.0, SVG Export Plug-In . SVG Version: 6.00 Build 0)  -->
<svg version="1.1" id="Calque_1" xmlns="http://www.w3.org/2000/svg" xmlns:xlink="http://www.w3.org/1999/xlink" x="0px" y="0px"
	 viewBox="0 0 512 512" style="enable-background:new 0 0 512 512;" xml:space="preserve">
<style type="text/css">
	.st0{fill-rule:evenodd;clip-rule:evenodd;fill:#33B0DF;}
	.st1{fill-rule:evenodd;clip-rule:evenodd;fill:#282828;}
</style>
<path class="st0" d="M166,179.9c0-5.5,4.5-10,10-10h160c5.5,0,10,4.5,10,10v64c0,5.5-4.5,10-10,10H176c-5.5,0-10-4.5-10-10V179.9z
	 M186,189.9v44h140v-44H186z"/>
<path class="st1" d="M236,3c-5.5,0-10,4.5-10,10v38h-30c-5.5,0-10,4.5-10,10v30h-58c-23.2,0-42,18.8-42,42v288
	c0,22.5,17.7,40.9,40,42v38c0,5.5,4.5,10,10,10h40c5.5,0,10-4.5,10-10v-38h140v38c0,5.5,4.5,10,10,10h40c5.5,0,10-4.5,10-10v-38
	c22.3-1,40-19.4,40-42V133c0-23.2-18.8-42-42-42h-58V61c0-5.5-4.5-10-10-10h-30V13c0-5.5-4.5-10-10-10H236z M366,463h-20v28h20V463z
	 M376,443h8c12.1,0,22-9.9,22-22V133c0-12.2-9.9-22-22-22h-68H196h-68c-12.2,0-22,9.8-22,22v288c0,12.1,9.8,22,22,22h8h40h160H376z
	 M146,491v-28h20v28H146z M266,51V23h-20v28H266z M236,71h-30v20h100V71h-30H236z"/>
<path class="st1" d="M235.8,327.8c-9.8,11-16.2,25.6-16.2,39.9c0,14.8,4.4,23.2,9,27.9c0.2-3,0.8-5.9,1.8-8.9
	c3.4-9.9,10.9-18.5,19.8-26c3.8-3.2,9.4-3.2,13.1,0.1c8,7.1,15.6,16,19.2,26c1,2.8,1.7,5.8,2,8.9c4.1-4.1,7.9-11.1,7.9-23.4
	c0-4.9-1.8-8.4-5-12c-2.6-2.9-5.6-5.3-9.3-8.1c-1.6-1.3-3.3-2.6-5.2-4.1c-5.5-4.6-12-10.6-15.5-19.3c-1.9-4.7-2.7-9.9-2.4-15.4
	C248.4,316.3,241.8,321.2,235.8,327.8z M220.9,314.6c12.3-13.9,29.4-24.1,47.1-24.1c3.3,0,6.3,1.6,8.2,4.3s2.3,6.1,1.2,9.2
	c-3.3,8.9-2.7,14.1-1.4,17.5c1.5,3.8,4.6,7.1,9.6,11.3c1.1,0.9,2.3,1.8,3.6,2.9c4.1,3.2,9.1,7.1,13,11.4
	c5.7,6.3,10.2,14.4,10.2,25.4c0,18.4-6.5,31.3-15.9,39.5c-9.1,7.9-20,10.6-27.9,10.6c-4,0-7.6-2.4-9.2-6.1c-1.6-3.7-0.8-7.9,2-10.8
	c2-2.1,2.8-4,3.1-5.6c0.3-1.7,0.1-3.8-0.8-6.4c-1.2-3.5-3.7-7.4-7.1-11.3c-3.7,4-6.1,7.7-7.1,10.9c-1.4,4.1-1.1,8.2,2.6,13.5
	c2.2,3.1,2.4,7,0.7,10.4c-1.7,3.3-5.1,5.4-8.9,5.4c-8.9,0-20-3.5-29-12.4c-9.1-9.1-15.2-23-15.2-42.3
	C199.6,347.7,208.5,328.6,220.9,314.6z"/>
</svg>
